!!! OTL: Berkowitz280
!!! Chapter: 1
!!! Section: II
!!! Page: 67
!!! Mode: 
!!! Encoder: DJB
**kern
*staff1
*I"Piano
=1-
*clefC3
*k[]
*e:
*M4/4
8e\L
8f\
8e\
8d\J
4e\
4cc\
=2
4b\
4a\
4g\
4f\
=3
8e\L
8f\
8e\
8d\J
4e\
4c\
=4
4d\
4f\
2e\
=5
8e\L
8f\
8e\
8d\J
4e\
4cc\
=6
4b\
4g\
4a\
8g\L
8f\J
=7
4e\
8d\L
8c\J
4d\
4f\
=8
1e
==
*-
